X: 19355
T: Jack Rowe
R: reel
M: 4/4
K: Gmajor
|:A3F GFED|EGAB c2BA|GBdg egdB|GBAF GFED|
A3F GFED|EGAB c2BA|GBdB AcBA|GEDE G4:|
|:g3e fdef|efge fdef|eBB2 efge|fdef gdef|
gbag eage|dBBA BAGF|GBdB AcBA|GEDE G4:|

